icons/midnadark/actions/24/media-playback-pause.svg

<svg xmlns="http://www.w3.org/2000/svg" viewBox="0 0 22 22"><path d="m11 3c-4.432 0-8 3.568-8 8 0 4.432 3.568 8 8 8 4.432 0 8-3.568 8-8 0-4.432-3.568-8-8-8m-3 5h2v6h-2v-6m4 0h2v6h-2v-6" transform="translate(0-.002)" fill="#fff"/></svg>

<?xml version="1.0" encoding="UTF-8" standalone="no"?>
<!-- Created with Inkscape (http://www.inkscape.org/) -->

<svg
   xmlns:dc="http://purl.org/dc/elements/1.1/"
   xmlns:cc="http://creativecommons.org/ns#"
   xmlns:rdf="http://www.w3.org/1999/02/22-rdf-syntax-ns#"
   xmlns:svg="http://www.w3.org/2000/svg"
   xmlns="http://www.w3.org/2000/svg"
   xmlns:sodipodi="http://sodipodi.sourceforge.net/DTD/sodipodi-0.dtd"
   xmlns:inkscape="http://www.inkscape.org/namespaces/inkscape"
   width="22"
   height="22"
   id="svg3869"
   version="1.1"
   inkscape:version="0.91 r13725"
   sodipodi:docname="media-playback-pause.svg">
  <defs
     id="defs3871" />
  <sodipodi:namedview
     id="base"
     pagecolor="#ffffff"
     bordercolor="#666666"
     borderopacity="1.0"
     inkscape:pageopacity="0.0"
     inkscape:pageshadow="2"
     inkscape:zoom="15.999999"
     inkscape:cx="-14.031254"
     inkscape:cy="13.095879"
     inkscape:document-units="px"
     inkscape:current-layer="layer1-5"
     showgrid="true"
     fit-margin-top="0"
     fit-margin-left="0"
     fit-margin-right="0"
     fit-margin-bottom="0"
     inkscape:window-width="1366"
     inkscape:window-height="633"
     inkscape:window-x="0"
     inkscape:window-y="33"
     inkscape:window-maximized="1"
     inkscape:showpageshadow="false"
     inkscape:snap-bbox="true"
     inkscape:object-nodes="true">
    <inkscape:grid
       type="xygrid"
       id="grid4132" />
    <sodipodi:guide
       position="4,18"
       orientation="18,0"
       id="guide4138" />
    <sodipodi:guide
       position="5,3"
       orientation="0,18"
       id="guide4140" />
    <sodipodi:guide
       position="20,2.0000174"
       orientation="-18,0"
       id="guide4142" />
    <sodipodi:guide
       position="2,21"
       orientation="0,-18"
       id="guide4144" />
    <sodipodi:guide
       position="3,19.000017"
       orientation="16,0"
       id="guide4146" />
    <sodipodi:guide
       position="2,4"
       orientation="0,16"
       id="guide4148" />
    <sodipodi:guide
       position="21,20"
       orientation="-16,0"
       id="guide4150" />
    <sodipodi:guide
       position="2,20"
       orientation="0,-16"
       id="guide4152" />
  </sodipodi:namedview>
  <metadata
     id="metadata3874">
    <rdf:RDF>
      <cc:Work
         rdf:about="">
        <dc:format>image/svg+xml</dc:format>
        <dc:type
           rdf:resource="http://purl.org/dc/dcmitype/StillImage" />
        <dc:title />
      </cc:Work>
    </rdf:RDF>
  </metadata>
  <g
     inkscape:label="Capa 1"
     inkscape:groupmode="layer"
     id="layer1"
     transform="translate(-326,-534.3622)">
    <g
       transform="matrix(0.91666667,0,0,0.91666667,-29.190479,56.880698)"
       id="layer1-5"
       inkscape:label="Capa 1">
      <g
         transform="matrix(0.97755135,0,0,0.97755135,388.62669,-485.15654)"
         id="layer1-58"
         inkscape:label="Capa 1"
         style="fill:#ffffff;fill-opacity:1">
        <g
           style="fill:#ffffff;fill-opacity:1"
           transform="matrix(1.1159609,0,0,1.1159609,-1.1724939,-120.69549)"
           id="g4151">
          <path
             style="fill:#ffffff;fill-opacity:1;stroke:none;stroke-opacity:1"
             d="M 11 3 C 6.568 3 3 6.568 3 11 C 3 15.432 6.568 19 11 19 C 15.432 19 19 15.432 19 11 C 19 6.568 15.432 3 11 3 z M 8 8 L 10 8 L 10 14 L 8 14 L 8 8 z M 12 8 L 14 8 L 14 14 L 12 14 L 12 8 z "
             transform="translate(3.7869757e-6,1030.3622)"
             id="rect3356" />
        </g>
      </g>
    </g>
  </g>
</svg>
